X: 6325
T: Carronside
R: barndance
M: 4/4
K: Gmajor
|:B2AG E2G2|D2cB B2A2|B2AG E2G2|B,2A,G, G,4:|
g2e/d/B d2B/A/G|g2e/d/B d4|=f2ed B2AG|g2e/d/B B2A2|
g2e/d/B d2B/A/G|g2b/a/g e3g|d2BG E2G2|B,2A,G, G,4||

